Adwaita++-Dark/actions/16/draw-polyline.svg

<svg height="16" viewBox="0 0 16 16" width="16" xmlns="http://www.w3.org/2000/svg">
  <path d="m1 1v10h1.1660156 2.8339844v4h.6660156 7.0000004.683593 1.650391l-10-9v-3.8339844-1.1660156h-2.8339844z" fill="#e6ddff"/>
</svg>

<svg xmlns="http://www.w3.org/2000/svg" width="16" height="16" viewBox="0 0 16 16">
 <defs>
  <style id="current-color-scheme" type="text/css">
   .ColorScheme-Text { color:#E6DDFF; } .ColorScheme-Highlight { color:#4285f4; }
  </style>
 </defs>
 <path style="fill:currentColor" class="ColorScheme-Text" d="M 1 1 L 1 11 L 2.1660156 11 L 5 11 L 5 15 L 5.6660156 15 L 12.666016 15 L 13.349609 15 L 15 15 L 5 6 L 5 2.1660156 L 5 1 L 2.1660156 1 L 1 1 z"/>
</svg>
